X: 15683
T: Golden Ace, The
R: slip jig
M: 9/8
K: Gmajor
M:12/8
E2E EDE GAB A2G|A2A AGE AGD E2D|
E2E EDE GAB A2G|c3 B3 AGF G2D:|
M:9/8
|:B2BB2d BAG|c2cc2d cAG|B2BB2d BAG|
A2A AGF E2D|B2BB2d BAG|c2cc2d edA|B2BB2d BAG|
M:12/8
[1 c3 B3 AGF G2D:|2 c3 B3 AGF AGF||

